assets/svg/action_wallet_success2_fa.svg

<svg width="80" height="80" viewBox="0 0 80 80" fill="none" xmlns="http://www.w3.org/2000/svg">
<path d="M51.1984 60.9082V70.5223C51.1984 72.866 49.2984 74.766 46.9547 74.766H28.1953C26.6859 74.766 25.4609 75.991 25.4609 77.5004H46.9547C50.8094 77.5004 53.9328 74.3754 53.9328 70.5223V60.9082H51.1984Z" fill="#E1EAF8"/>
<path d="M40.9438 8.05313H29.4609C28.5203 8.05313 27.6844 7.45156 27.3859 6.55781L26.0312 2.5H44.3719L43.0187 6.55781C42.8732 6.99307 42.5946 7.37159 42.2223 7.63991C41.8499 7.90823 41.4027 8.05277 40.9438 8.05313Z" fill="#E1EAF8"/>
<path d="M53.3859 70.5203V61.4531H54.4797V70.5203C54.4797 74.6687 51.1047 78.0453 46.9547 78.0453H23.4469C19.2984 78.0453 15.9219 74.6703 15.9219 70.5203V61.7891C15.9219 61.4875 16.1672 61.2422 16.4687 61.2422C16.7703 61.2422 17.0156 61.4875 17.0156 61.7891V70.5203C17.0156 74.0656 19.9 76.9516 23.4469 76.9516H46.9547C50.5 76.9516 53.3859 74.0672 53.3859 70.5203Z" fill="#9A9A9A"/>
<path d="M16.4688 58.0844C16.7703 58.0844 17.0156 57.8391 17.0156 57.5375V9.47813C17.0156 5.93125 19.9016 3.04688 23.4469 3.04688H46.9547C50.5016 3.04688 53.3859 5.93281 53.3859 9.47813V19.7938C53.3859 20.0953 53.6313 20.3406 53.9328 20.3406C54.2344 20.3406 54.4797 20.0953 54.4797 19.7938V9.47813C54.4797 5.32812 51.1031 1.95312 46.9547 1.95312H23.4469C19.2969 1.95312 15.9219 5.32969 15.9219 9.47813V57.5375C15.9219 57.8391 16.1672 58.0844 16.4688 58.0844Z" fill="#9A9A9A"/>
<path d="M37.3755 32.2031C37.2865 32.2031 37.1943 32.1812 37.1115 32.1343L33.5521 30.1625C33.4254 30.0919 33.3317 29.9741 33.2916 29.8348C33.2515 29.6954 33.2682 29.5458 33.338 29.4187C33.4849 29.1547 33.8177 29.0593 34.0818 29.2047L37.6412 31.1765C37.9052 31.3234 38.0005 31.6562 37.8552 31.9203C37.8079 32.006 37.7384 32.0775 37.654 32.1273C37.5697 32.177 37.4735 32.2032 37.3755 32.2031ZM33.299 46.2062C33.088 46.2062 32.8865 46.0828 32.7974 45.8765C32.6771 45.6 32.8037 45.2781 33.0818 45.1578L36.813 43.5375C37.0896 43.4172 37.4115 43.5437 37.5318 43.8218C37.6521 44.0984 37.5255 44.4203 37.2474 44.5406L33.5162 46.1609C33.4459 46.1922 33.3724 46.2062 33.299 46.2062Z" fill="#0166FF"/>
<path d="M45.3012 46.9996C44.7809 46.1621 43.4887 46.5371 43.4981 47.5231C43.52 49.6691 44.3489 51.809 45.9872 53.4465C48.3692 55.8285 51.8145 56.5012 54.7965 55.4645C55.9473 55.0645 55.8192 53.3895 54.6184 53.1863C50.6317 52.5121 47.4833 50.5106 45.3012 46.9996Z" fill="#E1EAF8"/>
<path d="M59.9141 51.9326C59.9141 54.8732 61.6609 57.5318 64.3602 58.699C64.5406 58.7772 64.7445 58.7772 64.925 58.699C67.6234 57.5318 69.3711 54.8725 69.3711 51.9326V47.6592C69.3711 47.4959 69.2375 47.3623 69.0742 47.3623H69.0711C67.5969 47.3623 66.1695 46.9092 64.807 46.0068C64.7583 45.9744 64.7011 45.957 64.6426 45.957C64.584 45.957 64.5268 45.9744 64.4781 46.0068C63.1141 46.91 61.6844 47.3631 60.2078 47.3623C60.0453 47.3623 59.9141 47.4936 59.9141 47.6553V51.9326Z" fill="#0166FF"/>
<path d="M46.543 34.9394H64.3602C65.1867 34.9394 65.8586 35.6113 65.8586 36.4378V43.3363C65.8586 43.487 65.9812 43.6097 66.132 43.6097C66.2828 43.6097 66.4055 43.487 66.4055 43.3363V36.4378C66.4055 35.3097 65.4883 34.3925 64.3602 34.3925H61.5664V30.9956C61.5664 26.6159 58.0477 23.0183 53.7227 22.9769C51.5938 22.9581 49.5883 23.7714 48.0727 25.2722C46.557 26.773 45.7227 28.7714 45.7227 30.8988V34.1198C45.7227 34.5714 46.0906 34.9394 46.543 34.9394ZM46.2695 30.898C46.2695 28.9175 47.0469 27.0573 48.4578 25.6605C49.8508 24.2808 51.6906 23.523 53.6438 23.523H53.7172C57.7438 23.562 61.0195 26.9144 61.0195 30.9948V34.3917H59.5453V30.898C59.5453 27.6441 56.8984 24.9972 53.6445 24.9972C50.3906 24.9972 47.7438 27.6441 47.7438 30.898V33.2628C47.7438 33.4136 47.8664 33.5363 48.0172 33.5363C48.168 33.5363 48.2906 33.4136 48.2906 33.2628V30.898C48.2906 27.9456 50.6922 25.5441 53.6445 25.5441C56.5969 25.5441 58.9984 27.9456 58.9984 30.898V34.3925H46.543C46.3922 34.3925 46.2695 34.2698 46.2695 34.1191V30.898Z" fill="#9A9A9A"/>
<path d="M70.9211 45.7301C70.8593 45.668 70.7857 45.6188 70.7047 45.5854C70.6237 45.552 70.5368 45.5351 70.4492 45.5355H70.4484C68.575 45.5355 66.7445 44.9527 65.0094 43.8043C64.9008 43.7321 64.7733 43.6936 64.643 43.6936C64.5126 43.6936 64.3851 43.7321 64.2766 43.8043C62.5406 44.9535 60.7109 45.5355 58.8375 45.5355H58.8289C58.6531 45.5355 58.4883 45.6035 58.3641 45.7277C58.2398 45.852 58.1711 46.0176 58.1711 46.1934V51.8012C58.1711 53.5059 58.6063 55.1379 59.3906 56.5715C58.0203 57.1738 56.5609 57.4793 55.0469 57.4793H52.2414C46.2797 57.4793 41.4297 52.6293 41.4297 46.6676V36.4379C41.4297 35.6113 42.1016 34.9395 42.9281 34.9395H44.5242C44.675 34.9395 44.7977 34.8168 44.7977 34.666C44.7977 34.5152 44.675 34.3926 44.5242 34.3926H42.9281C41.8 34.3926 40.8828 35.3098 40.8828 36.4379V46.6676C40.8828 52.9309 45.9781 58.0262 52.2414 58.0262H55.0453C56.657 58.0262 58.2102 57.6957 59.6664 57.0457C60.7347 58.7671 62.3042 60.1204 64.1641 60.9238C64.3164 60.9895 64.4797 61.0223 64.643 61.0223C64.8062 61.0223 64.9695 60.9895 65.1219 60.9238C66.9026 60.1546 68.4191 58.8808 69.4842 57.2596C70.5494 55.6385 71.1165 53.7409 71.1156 51.8012V46.198C71.1156 46.0215 71.0469 45.8559 70.9211 45.7301ZM70.5687 51.8012C70.5687 55.5496 68.3453 58.934 64.9047 60.4223C64.7383 60.4941 64.5477 60.4941 64.3813 60.4223C62.6985 59.6953 61.2654 58.4915 60.2589 56.9594C59.2524 55.4274 58.7164 53.6342 58.7172 51.8012V46.1934C58.7172 46.1535 58.7375 46.127 58.75 46.1152C58.7625 46.1027 58.7883 46.0824 58.8289 46.0824C58.8336 46.084 58.8344 46.0824 58.8375 46.0824C60.8203 46.0824 62.7523 45.4691 64.5789 44.2598C64.6187 44.2332 64.668 44.2332 64.7078 44.2598C66.5344 45.4691 68.4656 46.0824 70.4523 46.0824H70.4531C70.4945 46.0824 70.5219 46.1035 70.5344 46.1168C70.5469 46.1293 70.5687 46.1574 70.5687 46.198V51.8012Z" fill="#9A9A9A"/>
<path d="M56.9295 39.8078C56.8961 39.7036 56.8341 39.611 56.7505 39.5404C56.6669 39.4698 56.5652 39.4241 56.4569 39.4086L54.8756 39.1789L54.1686 37.7461C54.0694 37.5445 53.8678 37.4195 53.6428 37.4195C53.4178 37.4195 53.217 37.5445 53.117 37.7461L52.41 39.1789L50.8288 39.4086C50.7204 39.4237 50.6186 39.4691 50.535 39.5396C50.4513 39.6101 50.3893 39.7028 50.3561 39.807C50.3219 39.911 50.3177 40.0225 50.344 40.1288C50.3702 40.235 50.4259 40.3317 50.5045 40.4078L51.6483 41.5227L51.378 43.0977C51.3397 43.3187 51.4295 43.5391 51.6108 43.6711C51.6991 43.7358 51.8038 43.7743 51.913 43.7821C52.0221 43.79 52.1313 43.767 52.228 43.7156L53.642 42.9719L55.0561 43.7156C55.1428 43.7609 55.2366 43.7836 55.3295 43.7836C55.4506 43.7836 55.571 43.7453 55.6733 43.6711C55.7622 43.6071 55.8312 43.5194 55.8724 43.4179C55.9136 43.3165 55.9253 43.2055 55.9061 43.0977L55.6358 41.5234L56.7795 40.4086C56.8586 40.3327 56.9146 40.2361 56.9411 40.1298C56.9677 40.0235 56.9637 39.9119 56.9295 39.8078ZM50.8866 40.0164C50.8819 40.0117 50.8694 39.9992 50.8764 39.9766C50.8842 39.9531 50.9014 39.9508 50.9077 39.95L52.6311 39.6992C52.7202 39.6859 52.7975 39.6305 52.8374 39.5492L53.6077 37.9875C53.6108 37.9812 53.6186 37.9656 53.6428 37.9656C53.667 37.9656 53.6749 37.9812 53.678 37.9875L54.4131 39.4766C53.4155 39.6898 52.5725 40.3172 52.0725 41.1719L50.8866 40.0164ZM43.121 39.4086C43.0126 39.4237 42.9108 39.4691 42.8272 39.5396C42.7435 39.6101 42.6815 39.7028 42.6483 39.807C42.6141 39.911 42.6099 40.0225 42.6361 40.1288C42.6624 40.235 42.7181 40.3317 42.7967 40.4078L43.9405 41.5227L43.6702 43.0969C43.6319 43.318 43.7217 43.5383 43.903 43.6703C43.9913 43.735 44.096 43.7735 44.2052 43.7814C44.3143 43.7892 44.4235 43.7662 44.5202 43.7148L45.9342 42.9711L47.3483 43.7148C47.435 43.7602 47.528 43.7828 47.6217 43.7828C47.7428 43.7828 47.8631 43.7445 47.9655 43.6703C48.0544 43.6064 48.1234 43.5186 48.1646 43.4172C48.2057 43.3157 48.2174 43.2047 48.1983 43.0969L47.928 41.5219L49.0717 40.407C49.2327 40.25 49.2897 40.0203 49.2202 39.8062C49.1506 39.5922 48.9694 39.4398 48.7475 39.407L47.1663 39.1773L46.4592 37.7445C46.36 37.543 46.1585 37.418 45.9335 37.418C45.7085 37.418 45.5077 37.543 45.4077 37.7445L44.7006 39.1773L43.121 39.4086ZM45.1288 39.55L45.8991 37.9883C45.9022 37.982 45.91 37.9664 45.9342 37.9664C45.9585 37.9664 45.9663 37.982 45.9694 37.9883L46.7045 39.4773C45.7069 39.6906 44.8639 40.318 44.3639 41.1727L43.178 40.0164C43.1733 40.0117 43.1608 39.9992 43.1678 39.9766C43.1756 39.9531 43.1928 39.9508 43.1991 39.95L44.9225 39.6992C45.0116 39.6867 45.0889 39.6305 45.1288 39.55ZM64.6374 39.8078C64.6039 39.7036 64.5419 39.611 64.4583 39.5404C64.3747 39.4698 64.273 39.4241 64.1647 39.4086L62.5835 39.1789L61.8764 37.7461C61.7772 37.5445 61.5756 37.4195 61.3506 37.4195C61.1256 37.4195 60.9249 37.5445 60.8249 37.7461L60.1178 39.1789L58.5366 39.4086C58.4283 39.4237 58.3264 39.4691 58.2428 39.5396C58.1592 39.6101 58.0971 39.7028 58.0639 39.807C58.0297 39.911 58.0255 40.0225 58.0518 40.1288C58.078 40.235 58.1337 40.3317 58.2124 40.4078L59.3561 41.5227L59.0858 43.0969C59.0475 43.318 59.1374 43.5383 59.3186 43.6703C59.4069 43.735 59.5116 43.7735 59.6208 43.7814C59.73 43.7892 59.8391 43.7662 59.9358 43.7148L61.3499 42.9711L62.7639 43.7148C62.8506 43.7602 62.9436 43.7828 63.0374 43.7828C63.1585 43.7828 63.2788 43.7445 63.3811 43.6703C63.47 43.6064 63.539 43.5186 63.5802 43.4172C63.6214 43.3157 63.6331 43.2047 63.6139 43.0969L63.3436 41.5219L64.4874 40.407C64.5666 40.3317 64.6228 40.2353 64.6493 40.1292C64.6759 40.0231 64.6717 39.9116 64.6374 39.8078ZM58.5944 40.0164C58.5897 40.0117 58.5772 39.9992 58.5842 39.9766C58.592 39.9531 58.6092 39.9508 58.6155 39.95L60.3389 39.6992C60.428 39.6859 60.5053 39.6305 60.5452 39.5492L61.3155 37.9875C61.3186 37.9812 61.3264 37.9656 61.3506 37.9656C61.3749 37.9656 61.3827 37.9812 61.3858 37.9875L62.121 39.4766C61.1233 39.6898 60.2803 40.3172 59.7803 41.1719L58.5944 40.0164Z" fill="#9A9A9A"/>
<path d="M68.988 30.0095C68.9877 30.1653 69.0523 30.3055 69.1558 30.4052C69.2526 30.4984 69.3864 30.5577 69.5344 30.5571L73.6024 30.5712C73.9052 30.572 74.1503 30.3286 74.1512 30.0258C74.152 29.723 73.9076 29.4791 73.6058 29.4771L69.5368 29.4642C69.4649 29.4638 69.3937 29.4777 69.3272 29.5049C69.2606 29.5321 69.2002 29.5722 69.1492 29.6229C69.0982 29.6736 69.0577 29.7338 69.0301 29.8001C69.0024 29.8665 68.9881 29.9376 68.988 30.0095Z" fill="#0166FF"/>
<path d="M63.4394 18.6571C63.2679 18.8803 63.2949 19.1947 63.4931 19.3854C63.5077 19.3995 63.5223 19.4136 63.538 19.4244C63.6529 19.5129 63.7982 19.5523 63.942 19.5338C64.0859 19.5153 64.2165 19.4405 64.3052 19.3257L66.7954 16.1078C66.9798 15.8689 66.9356 15.5249 66.6967 15.3405C66.4578 15.1561 66.1139 15.2003 65.9295 15.4392L63.4394 18.6571Z" fill="#0166FF"/>
</svg>

<svg xmlns="http://www.w3.org/2000/svg" width="80" height="80" fill="none"><path fill="#E1EAF8" d="M51.198 60.908v9.614c0 2.344-1.9 4.244-4.243 4.244h-18.76a2.735 2.735 0 0 0-2.734 2.734h21.494a6.98 6.98 0 0 0 6.978-6.978v-9.614zM40.944 8.053H29.46c-.94 0-1.777-.601-2.075-1.495L26.03 2.5h18.34L43.02 6.558a2.19 2.19 0 0 1-2.075 1.495"/><path fill="#9A9A9A" d="M53.386 70.52v-9.067h1.094v9.067c0 4.149-3.375 7.525-7.525 7.525H23.447c-4.149 0-7.525-3.375-7.525-7.525v-8.73a.547.547 0 0 1 1.094 0v8.73a6.44 6.44 0 0 0 6.43 6.432h23.509a6.44 6.44 0 0 0 6.43-6.432M16.469 58.084a.547.547 0 0 0 .547-.547V9.479a6.44 6.44 0 0 1 6.43-6.431h23.509a6.44 6.44 0 0 1 6.43 6.431v10.316a.548.548 0 0 0 1.095 0V9.478c0-4.15-3.377-7.525-7.525-7.525H23.447c-4.15 0-7.525 3.377-7.525 7.525v48.06c0 .301.245.546.547.546"/><path fill="#0166FF" d="M37.376 32.203a.54.54 0 0 1-.264-.069l-3.56-1.971a.55.55 0 0 1-.214-.744.55.55 0 0 1 .744-.214l3.56 1.972a.549.549 0 0 1-.267 1.026m-4.077 14.003a.547.547 0 0 1-.217-1.048l3.731-1.62a.546.546 0 1 1 .434 1.003l-3.73 1.62a.5.5 0 0 1-.218.045"/><path fill="#E1EAF8" d="M45.301 47c-.52-.838-1.812-.463-1.803.523a8.47 8.47 0 0 0 2.49 5.923 8.5 8.5 0 0 0 8.809 2.019c1.15-.4 1.022-2.076-.179-2.279-3.986-.674-7.135-2.675-9.317-6.186"/><path fill="#0166FF" d="M59.914 51.933c0 2.94 1.747 5.599 4.446 6.766a.7.7 0 0 0 .565 0 7.37 7.37 0 0 0 4.446-6.766v-4.274a.3.3 0 0 0-.297-.297h-.003c-1.474 0-2.901-.453-4.264-1.355a.3.3 0 0 0-.329 0c-1.364.903-2.794 1.356-4.27 1.355a.293.293 0 0 0-.294.293z"/><path fill="#9A9A9A" d="M46.543 34.94H64.36a1.5 1.5 0 0 1 1.499 1.498v6.898a.274.274 0 0 0 .547 0v-6.898a2.047 2.047 0 0 0-2.046-2.046h-2.794v-3.396c0-4.38-3.518-7.978-7.843-8.02a7.87 7.87 0 0 0-5.65 2.296 7.86 7.86 0 0 0-2.35 5.627v3.22c0 .452.368.82.82.82m-.273-4.042c0-1.98.777-3.84 2.188-5.238a7.32 7.32 0 0 1 5.186-2.137h.073c4.027.039 7.303 3.391 7.303 7.472v3.397h-1.475v-3.494c0-3.254-2.647-5.9-5.9-5.9a5.907 5.907 0 0 0-5.901 5.9v2.365a.274.274 0 0 0 .547 0v-2.365a5.36 5.36 0 0 1 5.354-5.354 5.36 5.36 0 0 1 5.353 5.354v3.494H46.543a.274.274 0 0 1-.273-.273z"/><path fill="#9A9A9A" d="M70.921 45.73a.66.66 0 0 0-.472-.194c-1.874 0-3.704-.583-5.44-1.732a.66.66 0 0 0-.732 0c-1.736 1.15-3.566 1.731-5.44 1.731h-.008a.655.655 0 0 0-.658.658v5.608c0 1.705.435 3.337 1.22 4.77a10.7 10.7 0 0 1-4.344.908H52.24c-5.961 0-10.811-4.85-10.811-10.811v-10.23a1.5 1.5 0 0 1 1.498-1.498h1.596a.274.274 0 0 0 0-.547h-1.596a2.047 2.047 0 0 0-2.045 2.045v10.23c0 6.263 5.095 11.358 11.358 11.358h2.804c1.612 0 3.165-.33 4.621-.98a9.93 9.93 0 0 0 4.498 3.878 1.2 1.2 0 0 0 .958 0 9.93 9.93 0 0 0 5.994-9.123v-5.603a.66.66 0 0 0-.195-.468m-.352 6.071a9.39 9.39 0 0 1-5.664 8.621.66.66 0 0 1-.524 0 9.39 9.39 0 0 1-5.664-8.62v-5.609c0-.04.02-.066.033-.078a.1.1 0 0 1 .079-.033q.006.001.008 0c1.983 0 3.915-.613 5.742-1.822a.11.11 0 0 1 .129 0c1.826 1.21 3.758 1.822 5.744 1.822h.001c.041 0 .069.021.081.035.013.012.035.04.035.081z"/><path fill="#9A9A9A" d="M56.93 39.808a.58.58 0 0 0-.473-.4l-1.581-.23-.707-1.432a.58.58 0 0 0-.526-.327.58.58 0 0 0-.526.327l-.707 1.433-1.581.23a.58.58 0 0 0-.473.398.58.58 0 0 0 .148.6l1.144 1.116-.27 1.575a.583.583 0 0 0 .535.684.6.6 0 0 0 .315-.066l1.414-.744 1.414.744a.585.585 0 0 0 .85-.618l-.27-1.575 1.143-1.114a.58.58 0 0 0 .15-.601m-6.043.208c-.005-.004-.018-.017-.01-.04s.024-.025.03-.026l1.724-.25a.27.27 0 0 0 .206-.15l.77-1.562a.04.04 0 0 1 .036-.022c.024 0 .032.015.035.021l.735 1.49c-.997.213-1.84.84-2.34 1.695zm-7.766-.607a.58.58 0 0 0-.473.398.58.58 0 0 0 .149.6l1.144 1.116-.27 1.574a.583.583 0 0 0 .534.684.6.6 0 0 0 .315-.066l1.414-.744 1.414.744a.587.587 0 0 0 .817-.298.6.6 0 0 0 .033-.32l-.27-1.575 1.144-1.115a.58.58 0 0 0 .148-.6.58.58 0 0 0-.472-.4l-1.582-.23-.707-1.432a.58.58 0 0 0-.526-.327.58.58 0 0 0-.525.327l-.707 1.432zm2.008.141.77-1.562a.04.04 0 0 1 .035-.022c.025 0 .032.016.035.022l.736 1.49c-.998.213-1.841.84-2.341 1.695l-1.186-1.157c-.005-.004-.017-.017-.01-.04s.025-.025.031-.026l1.724-.25a.27.27 0 0 0 .206-.15m19.508.258a.58.58 0 0 0-.472-.4l-1.582-.23-.707-1.432a.58.58 0 0 0-.525-.327.58.58 0 0 0-.526.327l-.707 1.433-1.581.23a.58.58 0 0 0-.473.398.58.58 0 0 0 .148.6l1.144 1.116-.27 1.574a.583.583 0 0 0 .535.684.6.6 0 0 0 .315-.066l1.414-.744 1.414.744a.587.587 0 0 0 .816-.298.6.6 0 0 0 .034-.32l-.27-1.575 1.143-1.115a.58.58 0 0 0 .15-.6m-6.043.208c-.004-.004-.017-.017-.01-.04s.025-.025.031-.026l1.724-.25a.27.27 0 0 0 .206-.15l.77-1.562a.04.04 0 0 1 .036-.022c.024 0 .032.015.035.021l.735 1.49c-.998.213-1.84.84-2.34 1.695z"/><path fill="#0166FF" d="M68.988 30.01a.546.546 0 0 0 .546.547l4.068.014a.546.546 0 1 0 .004-1.094l-4.07-.013a.546.546 0 0 0-.548.546M63.44 18.657a.549.549 0 0 0 .502.877.55.55 0 0 0 .363-.208l2.49-3.218a.547.547 0 0 0-.865-.669z"/></svg>
